material/.icons/material/account-multiple-plus.svg

<svg xmlns="http://www.w3.org/2000/svg" viewBox="0 0 24 24"><path d="M19 17v2H7v-2s0-4 6-4 6 4 6 4m-3-9a3 3 0 10-3 3 3 3 0 003-3m3.2 5.06A5.6 5.6 0 0121 17v2h3v-2s0-3.45-4.8-3.94M18 5a2.91 2.91 0 00-.89.14 5 5 0 010 5.72A2.91 2.91 0 0018 11a3 3 0 000-6M8 10H5V7H3v3H0v2h3v3h2v-3h3z"/></svg>

<?xml version="1.0" encoding="UTF-8"?><!DOCTYPE svg PUBLIC "-//W3C//DTD SVG 1.1//EN" "http://www.w3.org/Graphics/SVG/1.1/DTD/svg11.dtd"><svg xmlns="http://www.w3.org/2000/svg" xmlns:xlink="http://www.w3.org/1999/xlink" version="1.1" id="mdi-account-multiple-plus" width="24" height="24" viewBox="0 0 24 24"><path d="M19 17V19H7V17S7 13 13 13 19 17 19 17M16 8A3 3 0 1 0 13 11A3 3 0 0 0 16 8M19.2 13.06A5.6 5.6 0 0 1 21 17V19H24V17S24 13.55 19.2 13.06M18 5A2.91 2.91 0 0 0 17.11 5.14A5 5 0 0 1 17.11 10.86A2.91 2.91 0 0 0 18 11A3 3 0 0 0 18 5M8 10H5V7H3V10H0V12H3V15H5V12H8Z" /></svg>
